X:3
T:Kalabakan (Borneo)
R:Reel
C:Angus MacDonald
M:4/4
L:1/8
K:D
Z:Transcribed 7 July, 2016 by Stephen Beitzel
%%scale 0.6
[|: A/2 | {Gdc}d2 {e}A>d {g}B<{d}A {g}B<d | {g}A<{d}A {g}B<d {g}f>e {A}e>f | {Gdc}d2 {e}A>d {g}B<{d}A {g}B<d | {g}A<{d}A {g}f>e {Gdc}d2 {g}d3/2 :|]
f/2 | {ag}a2 f>a {g}a2 f<{ag}a | {g}A<{d}A {g}B<d {g}f>e {A}e>f | {ag}a2 f>a {g}a2 f<{ag}a | {g}A<{d}A {g}f>e {Gdc}d2 {g}d>f |
{ag}a2 f>a {g}a2 f<{ag}a | {g}A<{d}A {g}B<d {g}f>e {A}e>f | {Gdc}d2 {e}A>d {g}B<{d}A {g}B<d | {g}A<{d}A {g}f>e {Gdc}d2 {g}d2 |
